svg/fluentui-system-icons/ic_fluent_cloud_dismiss_28_regular.svg

<svg width="28" height="28" viewBox="0 0 28 28" fill="none" xmlns="http://www.w3.org/2000/svg">
<path d="M7.51894 10C7.77426 6.64378 10.5784 4 14 4C17.4216 4 20.2257 6.64378 20.4811 10H20.75C23.0592 10 24.9835 11.6477 25.4113 13.8316C24.7188 13.2311 23.9153 12.7554 23.0356 12.4394C22.4484 11.8586 21.6411 11.5 20.75 11.5H19.75C19.3358 11.5 19 11.1642 19 10.75V10.5C19 7.73858 16.7614 5.5 14 5.5C11.2386 5.5 9 7.73858 9 10.5V10.75C9 11.1642 8.66421 11.5 8.25 11.5H7.25C5.45507 11.5 4 12.9551 4 14.75C4 16.5449 5.45507 18 7.25 18H13.15C13.0516 18.4847 13 18.9863 13 19.5H7.25C4.62665 19.5 2.5 17.3734 2.5 14.75C2.5 12.1266 4.62665 10 7.25 10H7.51894ZM27 19.5C27 23.0899 24.0899 26 20.5 26C16.9101 26 14 23.0899 14 19.5C14 15.9101 16.9101 13 20.5 13C24.0899 13 27 15.9101 27 19.5ZM17.8536 16.1464C17.6583 15.9512 17.3417 15.9512 17.1464 16.1464C16.9512 16.3417 16.9512 16.6583 17.1464 16.8536L19.7929 19.5L17.1464 22.1464C16.9512 22.3417 16.9512 22.6583 17.1464 22.8536C17.3417 23.0488 17.6583 23.0488 17.8536 22.8536L20.5 20.2071L23.1464 22.8536C23.3417 23.0488 23.6583 23.0488 23.8536 22.8536C24.0488 22.6583 24.0488 22.3417 23.8536 22.1464L21.2071 19.5L23.8536 16.8536C24.0488 16.6583 24.0488 16.3417 23.8536 16.1464C23.6583 15.9512 23.3417 15.9512 23.1464 16.1464L20.5 18.7929L17.8536 16.1464Z" fill="#212121"/>
</svg>

<svg xmlns="http://www.w3.org/2000/svg" width="28" height="28"><path d="M7.519 10a6.5 6.5 0 0 1 12.962 0h.269a4.751 4.751 0 0 1 4.661 3.832 7.495 7.495 0 0 0-2.375-1.393 3.24 3.24 0 0 0-2.286-.939h-1a.75.75 0 0 1-.75-.75v-.25a5 5 0 0 0-10 0v.25a.75.75 0 0 1-.75.75h-1a3.25 3.25 0 0 0 0 6.5h5.9c-.098.485-.15.986-.15 1.5H7.25a4.75 4.75 0 1 1 0-9.5h.269ZM27 19.5a6.5 6.5 0 1 1-13 0 6.5 6.5 0 0 1 13 0Zm-9.146-3.354a.5.5 0 0 0-.708.708l2.647 2.646-2.647 2.646a.5.5 0 0 0 .708.708l2.646-2.647 2.646 2.647a.5.5 0 0 0 .708-.708L21.207 19.5l2.647-2.646a.5.5 0 0 0-.708-.708L20.5 18.793l-2.646-2.647Z"/></svg>
